X: 1
T: Bill The Weaver
M: 2/4
L: 1/8
R: polka
K: Bmin
B/c/|:dB fB/c/|dB fe/d/|c/B/A/c/ e/c/A/B/|c/B/A/c/ ec/e/|
fb ba|fb ba|fa fe/c/|1d/c/A BB/c/:|2d/c/A Bf||
|:a>f df|A/B/c/d/ e2|g/f/e/d/ cA|Bc df|
a>f df|A/B/c/d/ e2|g/f/e/d/ cA|1Bc df:|2Bc dB/c/||
